X:002
T: Donald na Grena
T: Domhnaill na Greine - Daniel [of] the Sun
N: O'Farrell's Pocket Companion v.1 (Sky ed. p.12)
M: 6/8
Q: 320
R: jig
L: 1/8
K: C
c/d/| ede cAA| ede cAG| EAA A2G| EAA A2 c/d/|
ede cAA| e/f/ed cAG| EGG G2A| EGG G2 :|
A/B/| c3 d3| e/f/ed cAG| EAA A2G| EAA A2B|
cAA dBB| e/f/ed cAG| EGG G2A| EGG G2 :|
e| a3 g3| fed cAG| EAA A2G| EAA A2 e|
aba gbg| fed cAG | EGG G2A| EGG G2 :|
A/B/| c3 cAA| cAA cAG| EAA A2G| EAA A2B|
c3 cAA| ede cAG| EGG G2A| cAG G2 :|
